Pods/ProtonCore-UIFoundations/libraries/UIFoundations/Sources/Assets.xcassets/Images/IconSet/ic-arrow-right.imageset/ic-arrow-right.svg

<svg width="24" height="24" viewBox="0 0 24 24" fill="none" xmlns="http://www.w3.org/2000/svg">
<path fill-rule="evenodd" clip-rule="evenodd" d="M11.5277 3.21962C11.2357 3.51361 11.2374 3.98862 11.5314 4.28058L18.5496 11.2504L3.75029 11.2504C3.33596 11.2504 3.00008 11.5863 3.00008 12.0006C3.00008 12.4149 3.33596 12.7508 3.75029 12.7508L18.5496 12.7508L11.5314 19.7206C11.2374 20.0126 11.2357 20.4876 11.5277 20.7816C11.8196 21.0756 12.2946 21.0772 12.5886 20.7853L20.6854 12.7444C20.8512 12.5798 20.9504 12.3738 20.9831 12.1596C20.9942 12.1084 21 12.0552 21 12.0006C21 11.946 20.9942 11.8928 20.9831 11.8416C20.9504 11.6274 20.8512 11.4214 20.6854 11.2568L12.5886 3.21595C12.2946 2.92399 11.8196 2.92563 11.5277 3.21962Z" fill="#0C0C14"/>
</svg>

<svg xmlns="http://www.w3.org/2000/svg" width="24" height="24" viewBox="0 0 24 24">
  <g class="ic-arrow-right">
    <path fill-rule="evenodd" d="M11.528 3.22a.75.75 0 0 0 .003 1.06l7.019 6.97H3.75a.75.75 0 0 0 0 1.5h14.8l-7.019 6.97a.75.75 0 0 0 1.058 1.065l8.096-8.04c.166-.165.265-.371.298-.585a.75.75 0 0 0 0-.318 1.043 1.043 0 0 0-.298-.585L12.59 3.216a.75.75 0 0 0-1.061.004Z" class="Icon"/>
  </g>
</svg>
